X:1
T:Homeward Bound
T:Homeward Bound
T:Arranged by Robert F. Beveridge
T:Robert F. Beveridge (1866-1925)
T:Public Domain Courtesy of the Cyber Hymnal™
T:Public Domain Courtesy of the Cyber Hymnal™
C:Arranged by Robert F. Beveridge
Z:Public Domain
Z:Courtesy of the Cyber Hymnal™
%%score 1 ( 2 3 )
L:1/8
Q:1/4=92
M:4/4
K:Ab
V:1 treble 
V:2 bass 
V:3 bass 
V:1
 [CE][CA] | [Ec][Ec][Fc][Fc] [Ac][Ac] [Gd]>[Ac] | [GB]6 [B,E][EG] | %3
w: 1.~Trav- ’ling|on the sea of life we’re home- ward|bound, Drift- ing|
w: 2.~Je- sus|guides our storm tossed bark a- cross the|seas; He will|
w: 3.~Come on|board the Gos- pel ves- sel, do not|stay, And we’ll|
 [=DB][DB][DB][DB] [_DB][DB] [Ec]>[DB] | [CA]6 [CE][CA] | [Ec][Ec][Fc][Fc] [Ac][Ac] [Gd]>[Ac] | %6
w: wrecks and strug- gling souls are all a-|round; But we|do not fear the voy- age, for we|
w: bring us safe- ly to the port of|peace; He’s the|Pi- lot; He is stand- ing at the|
w: help you as we jour- ney on the|way; Soon to|har- bor at our Fa- ther’s blest a-|
 [GB]6 [B,E][EG] | [=DB][DB][DB][DB] [_DB][DB] [Ec]>[DB] | [CA]6 ||"^Refrain" [CA]2 | %10
w: know That the|Sav- ior steers us as we on- ward|go.||
w: helm, And no|an- gry winds or waves can o- ver-|whelm.|We’re|
w: bode, We will|wor- ship in the ci- ty of our|God.||
 [Fd][Fd] [Fd]>[Fd] [Fd] [Fd]3 | [Ec][Ec] [Ec]>[Ec] [Ec] [Ec]3 | %12
w: ||
w: home- ward bound for glo- ry,|Home- ward bound for glo- ry,|
w: ||
 [DB][DB][DB][DB] [CA][DB] [Ec]>[DB] | ([CA]3 [EB] [Ec]3) [CA] | [Fd][Fd] [Fd]>[Fd] [Fd] [Fd]3 | %15
w: |||
w: There we’ll meet with loved ones gone be-|fore; * * We’re|home- ward bound for glo- ry,|
w: |||
 [Ec][Ec] [Ec]>[Ec] [Ec] [Ec]3 | [DB][DB][DB][DB] [CA][FB] !fermata![Ec]>[DB] | [CA]6 |] %18
w: |||
w: Home- ward bound for glo- ry;|All the storms of life will soon be|o’er.|
w: |||
V:2
 [A,,A,][A,,A,] | [A,,A,][A,,A,][F,A,][F,A,] [E,A,][E,A,] [E,B,]>[E,A,] | [E,E]6 [E,G,][E,B,] | %3
w: ~ ~|~ ~ ~ ~ ~ ~ ~ ~|~ ~ ~|
 [B,,B,][B,,B,][B,,F,][B,,F,] [E,G,][E,G,] [E,A,]>[E,G,] | [A,,A,]6 [A,,A,][A,,A,] | %5
w: ~ ~ ~ ~ ~ ~ ~ ~|~ ~ ~|
 [A,,A,][A,,A,][F,A,][F,A,] [E,A,][E,A,] [E,B,]>[E,A,] | [E,E]6 [E,G,][E,B,] | %7
w: ~ ~ ~ ~ ~ ~ ~ ~|~ ~ ~|
 [B,,A,][B,,A,][B,,F,][B,,F,] [E,G,][E,G,] [E,B,]>[E,G,] | [A,,A,]6 || [A,,A,]2 | %10
w: ~ ~ ~ ~ ~ ~ ~ ~|~|~|
 [D,A,][D,A,] [D,A,]>[D,A,] [D,A,] A,3 | A,[E,A,] [C,A,]>[E,A,] A, A,3 | %12
w: ~ ~ ~ ~ ~ ~|Yes, we’re ~ ~ ~ ~|
 [E,G,][E,G,][E,G,][E,G,] [F,A,][E,G,] A,>[E,G,] | ([F,A,]3 [E,G,] A,3) [A,,A,] | %14
w: ~ ~ glo- ry; ~ ~ ~ ~|~ * * ~|
 [D,A,][D,A,] [D,A,]>[D,A,] [D,A,] A,3 | A,[E,A,] [C,A,]>[E,A,] A, A,3 | %16
w: ~ ~ ~ ~ ~ ~|~ ~ ~ ~ Yes, we’re|
 [E,G,][E,G,][E,G,][E,G,] [F,A,][D,A,] !fermata![E,A,]>[E,G,] | [A,,E,]6 |] %18
w: ~ ~ ~ ~ ~ ~ glo- ry,||
V:3
 x2 | x8 | x8 | x8 | x8 | x8 | x8 | x8 | x6 || x2 | x5 E,F,G, | A, x2 A, A,,C,D, x | x6 A,3/2 x/ | %13
 x8 | x5 E,F,G, | A, x2 A, A,,C,D, x | x8 | x6 |] %18

